public/flags/SB.svg

<svg fill="none" height="53" viewBox="0 0 61 53" width="61" xmlns="http://www.w3.org/2000/svg" xmlns:xlink="http://www.w3.org/1999/xlink"><filter id="a" color-interpolation-filters="sRGB" filterUnits="userSpaceOnUse" height="42.5" width="59" x="1" y="3"><feFlood flood-opacity="0" result="BackgroundImageFix"/><feColorMatrix in="SourceAlpha" type="matrix" values="0 0 0 0 0 0 0 0 0 0 0 0 0 0 0 0 0 0 127 0"/><feOffset/><feColorMatrix type="matrix" values="0 0 0 0 0 0 0 0 0 0 0 0 0 0 0 0 0 0 0.06 0"/><feBlend in2="BackgroundImageFix" mode="normal" result="effect1_dropShadow"/><feBlend in="SourceGraphic" in2="effect1_dropShadow" mode="normal" result="shape"/></filter><linearGradient id="b" gradientUnits="userSpaceOnUse" x1="1" x2="1" y1="3" y2="45.5"><stop offset="0" stop-color="#1dbe4f"/><stop offset="1" stop-color="#159b3f"/></linearGradient><linearGradient id="c" gradientUnits="userSpaceOnUse" x1="1" x2="1" y1="3" y2="45.5"><stop offset="0" stop-color="#0660d4"/><stop offset="1" stop-color="#0051bb"/></linearGradient><mask id="d" height="43" maskUnits="userSpaceOnUse" width="59" x="1" y="3"><rect fill="#fff" height="42.5" rx="4.24286" width="59" x="1" y="3"/></mask><rect fill="#fff" height="42.5" rx="4.24286" width="59" x="1" y="3"/><g mask="url(#d)"><path d="m1 3h59v42.5h-59z" fill="url(#b)"/><g filter="url(#a)"><path clip-rule="evenodd" d="m1 3h59l-59 42.5z" fill="url(#c)" fill-rule="evenodd"/></g><path clip-rule="evenodd" d="m60 3-59.000002 42.5h59.000002z" fill="#2c7442" fill-rule="evenodd"/><path d="m0 0h70.8768v50.5122h-70.8768z" fill="#ffd646" transform="matrix(.82684 -.562437 .55595 .831215 -4.84448 44.8745)"/><path clip-rule="evenodd" d="m5.25722 12.2402.39424-2.318-1.67001-1.64166 2.30789-.33819 1.03213-2.10904 1.03212 2.10904 2.30791.33819-1.67002 1.64166.39423 2.318-2.06424-1.0944zm14.04758 0 .3943-2.318-1.6701-1.64166 2.3079-.33819 1.0322-2.10904 1.0321 2.10904 2.3079.33819-1.67 1.64166.3942 2.318-2.0642-1.0944zm.3943 6.182-.3943 2.318 2.0643-1.0944 2.0642 1.0944-.3942-2.318 1.67-1.6417-2.3079-.3382-1.0321-2.109-1.0322 2.109-2.3079.3382zm-12.37763 1.2236-2.06425 1.0944.39424-2.318-1.67001-1.6417 2.30789-.3382 1.03213-2.109 1.03212 2.109 2.30791.3382-1.67002 1.6417.39423 2.318zm4.95953-3.1556 2.0642-1.0944 2.0642 1.0944-.3942-2.318 1.67-1.6417-2.3079-.3382-1.0321-2.109-1.0321 2.109-2.3079.3382 1.67 1.6417z" fill="#fff" fill-rule="evenodd"/></g></svg>

<svg width="61" height="53" viewBox="0 0 61 53" fill="none" xmlns="http://www.w3.org/2000/svg">
<rect x="1" y="3" width="59" height="42.5" rx="4.24286" fill="white"/>
<mask id="mask0" mask-type="alpha" maskUnits="userSpaceOnUse" x="1" y="3" width="59" height="43">
<rect x="1" y="3" width="59" height="42.5" rx="4.24286" fill="white"/>
</mask>
<g mask="url(#mask0)">
<rect x="1" y="3" width="59" height="42.5" fill="url(#paint0_linear)"/>
<g filter="url(#filter0_d)">
<path fill-rule="evenodd" clip-rule="evenodd" d="M1 3H60L1 45.5V3Z" fill="url(#paint1_linear)"/>
</g>
<path fill-rule="evenodd" clip-rule="evenodd" d="M60 3L0.999998 45.5H60V3Z" fill="#2C7442"/>
<rect width="70.8768" height="50.5122" transform="matrix(0.82684 -0.562437 0.55595 0.831215 -4.84448 44.8745)" fill="#FFD646"/>
<path fill-rule="evenodd" clip-rule="evenodd" d="M5.25722 12.2402L5.65146 9.9222L3.98145 8.28054L6.28934 7.94235L7.32147 5.83331L8.35359 7.94235L10.6615 8.28054L8.99148 9.9222L9.38571 12.2402L7.32147 11.1458L5.25722 12.2402ZM19.3048 12.2402L19.6991 9.9222L18.029 8.28054L20.3369 7.94235L21.3691 5.83331L22.4012 7.94235L24.7091 8.28054L23.0391 9.9222L23.4333 12.2402L21.3691 11.1458L19.3048 12.2402ZM19.6991 18.4222L19.3048 20.7402L21.3691 19.6458L23.4333 20.7402L23.0391 18.4222L24.7091 16.7805L22.4012 16.4423L21.3691 14.3333L20.3369 16.4423L18.029 16.7805L19.6991 18.4222ZM7.32147 19.6458L5.25722 20.7402L5.65146 18.4222L3.98145 16.7805L6.28934 16.4423L7.32147 14.3333L8.35359 16.4423L10.6615 16.7805L8.99148 18.4222L9.38571 20.7402L7.32147 19.6458ZM12.281 16.4902L14.3452 15.3958L16.4094 16.4902L16.0152 14.1722L17.6852 12.5305L15.3773 12.1923L14.3452 10.0833L13.3131 12.1923L11.0052 12.5305L12.6752 14.1722L12.281 16.4902Z" fill="white"/>
</g>
<defs>
<filter id="filter0_d" x="1" y="3" width="59" height="42.5" filterUnits="userSpaceOnUse" color-interpolation-filters="sRGB">
<feFlood flood-opacity="0" result="BackgroundImageFix"/>
<feColorMatrix in="SourceAlpha" type="matrix" values="0 0 0 0 0 0 0 0 0 0 0 0 0 0 0 0 0 0 127 0"/>
<feOffset/>
<feColorMatrix type="matrix" values="0 0 0 0 0 0 0 0 0 0 0 0 0 0 0 0 0 0 0.06 0"/>
<feBlend mode="normal" in2="BackgroundImageFix" result="effect1_dropShadow"/>
<feBlend mode="normal" in="SourceGraphic" in2="effect1_dropShadow" result="shape"/>
</filter>
<linearGradient id="paint0_linear" x1="1" y1="3" x2="1" y2="45.5" gradientUnits="userSpaceOnUse">
<stop stop-color="#1DBE4F"/>
<stop offset="1" stop-color="#159B3F"/>
</linearGradient>
<linearGradient id="paint1_linear" x1="1" y1="3" x2="1" y2="45.5" gradientUnits="userSpaceOnUse">
<stop stop-color="#0660D4"/>
<stop offset="1" stop-color="#0051BB"/>
</linearGradient>
</defs>
</svg>
